X: 1
T:Amazing Grace  "arr: Dave Palladino"
M:3/4
L:1/8
Q:80
C: Seconds
S:Hymn
K:HP
{g}Ad{g}A4|
{g}dc/2B/2{Gdc}d4|
{gde}dc{gBd}B4|  !
{e}G2{g}c4|
{g}Ad{g}A4|
{g}de/2f/2{Gdc}d4|  !
{g}cd{gef}e4|
{g}ed{gcd}c4|]
{g}Bc{Gdc}d4|  !
{g}dc/2B/2{Gdc}d2e2|
{g}f2{gf}g4|
{gf}g2{a}c4|  !
{g}Ad{gBd}B4|
{G}B2{GdG}c4|
{gf}g2{a}f4|  !
-f2{e}f4|]
